src/lib/packages/icons/src/assets/line/folder-shield.svg

<svg width="24" height="24" viewBox="0 0 24 24" fill="none" xmlns="http://www.w3.org/2000/svg">
<path d="M18 20.75H6C3.582 20.75 2.25 19.418 2.25 17V7C2.25 4.582 3.582 3.25 6 3.25H10C10.199 3.25 10.39 3.329 10.53 3.47L13.3101 6.25H18C20.418 6.25 21.75 7.582 21.75 10V17C21.75 19.418 20.418 20.75 18 20.75ZM6 4.75C4.423 4.75 3.75 5.423 3.75 7V17C3.75 18.577 4.423 19.25 6 19.25H18C19.577 19.25 20.25 18.577 20.25 17V10C20.25 8.423 19.577 7.75 18 7.75H13C12.801 7.75 12.61 7.671 12.47 7.53L9.68994 4.75H6ZM12 17.75C11.917 17.75 11.8339 17.736 11.7549 17.709C10.0609 17.123 8.25 15.608 8.25 13.111V11.167C8.25 10.834 8.47006 10.541 8.78906 10.447C10.3101 10.001 11.0171 9.66601 11.6631 9.33301C11.8791 9.22201 12.136 9.22199 12.353 9.33499C12.993 9.66899 13.69 10.002 15.188 10.39C15.518 10.476 15.75 10.774 15.75 11.116V13.111C15.75 15.608 13.9391 17.123 12.2451 17.709C12.1661 17.736 12.083 17.75 12 17.75ZM9.75 11.723V13.111C9.75 15.024 11.313 15.902 12 16.196C12.687 15.903 14.25 15.024 14.25 13.111V11.689C13.284 11.413 12.6249 11.146 12.0039 10.84C11.3749 11.148 10.728 11.416 9.75 11.723Z" fill="currentColor"/>
</svg>

<svg xmlns="http://www.w3.org/2000/svg" width="24" height="24" fill="none"><path fill="currentColor" d="M18 20.75H6c-2.418 0-3.75-1.332-3.75-3.75V7c0-2.418 1.332-3.75 3.75-3.75h4c.199 0 .39.079.53.22l2.78 2.78H18c2.418 0 3.75 1.332 3.75 3.75v7c0 2.418-1.332 3.75-3.75 3.75Zm-12-16c-1.577 0-2.25.673-2.25 2.25v10c0 1.577.673 2.25 2.25 2.25h12c1.577 0 2.25-.673 2.25-2.25v-7c0-1.577-.673-2.25-2.25-2.25h-5a.747.747 0 0 1-.53-.22L9.69 4.75H6Zm6 13a.76.76 0 0 1-.245-.041c-1.694-.586-3.505-2.101-3.505-4.598v-1.944a.75.75 0 0 1 .54-.72c1.52-.446 2.227-.781 2.873-1.114a.75.75 0 0 1 .69.002c.64.334 1.337.667 2.835 1.055.33.086.562.384.562.726v1.995c0 2.497-1.81 4.012-3.505 4.598a.76.76 0 0 1-.245.041Zm-2.25-6.027v1.388c0 1.913 1.563 2.791 2.25 3.085.687-.293 2.25-1.172 2.25-3.085v-1.422a12.716 12.716 0 0 1-2.246-.849c-.63.308-1.276.576-2.254.883Z"/></svg>
